X:105 
T:Lasses of Saint Barry's (reel), The
S:Madigan MS
F:file ID: cre.4/105lasses_sb
B:CRE4.196 (Gearrchaili Naomh Barra)
N:Played A-B-A
L:1/8
Q:180
M:4/4
R:reel 
K:G
"A dorian"
ge|dBBA G2GD|EGDG EGDG|dBBA G2GD|EGAc BAA2:|
"5"dBBe dBBe|dBBe defg|dBBe defg|(3efg dB BA A2|
"9"dBBe dBBe|dBBe defg|egde BdAB|DEGc Bgfe ||
"13"dBBA G2GD|EGDG EGDG|dBBA G2GD|EGAc BAA2|
"17"dBBA G2GD|EGDG EGDG|dBBA G2GD|EGAc BAA2||

%%%

